assets/img/filter.svg

<svg width="52" height="52" viewBox="0 0 52 52" fill="none" xmlns="http://www.w3.org/2000/svg">
<rect width="52" height="52" rx="15.1667" fill="#FF5B35"/>
<path fill-rule="evenodd" clip-rule="evenodd" d="M18.1282 16H33.8718C35.0476 16 36 16.9811 36 18.1923V19.7238C36 20.3113 35.7704 20.8756 35.3627 21.2871L28.8577 27.867C28.7454 27.9816 28.5931 28.0452 28.4355 28.0441L22.9889 28.0272C22.8232 28.0272 22.6656 27.9561 22.5524 27.832L16.5745 21.2574C16.2049 20.8512 16 20.3145 16 19.7577V18.1933C16 16.9821 16.9524 16 18.1282 16ZM23.2801 29.8241L28.1347 29.839C28.4374 29.8401 28.6824 30.0935 28.6824 30.4043V33.1353C28.6824 33.4471 28.5053 33.7293 28.2294 33.8597L23.8227 35.9289C23.7197 35.9767 23.6106 36 23.5015 36C23.3563 36 23.2111 35.9576 23.0845 35.8738C22.8631 35.7274 22.7293 35.475 22.7293 35.2046V30.3894C22.7293 30.0766 22.9764 29.8231 23.2801 29.8241Z" fill="#EAE8F0"/>
</svg>

<svg xmlns="http://www.w3.org/2000/svg" width="52" height="52" fill="none"><rect width="52" height="52" fill="#FF5B35" rx="15.167"/><path fill="#EAE8F0" fill-rule="evenodd" d="M18.128 16h15.744c1.176 0 2.128.981 2.128 2.192v1.532c0 .587-.23 1.152-.637 1.563l-6.505 6.58a.59.59 0 0 1-.422.177l-5.447-.017a.6.6 0 0 1-.437-.195l-5.977-6.575a2.23 2.23 0 0 1-.575-1.5v-1.564c0-1.21.952-2.193 2.128-2.193m5.152 13.824 4.855.015a.56.56 0 0 1 .547.565v2.731a.8.8 0 0 1-.453.725l-4.406 2.069a.76.76 0 0 1-.739-.055.8.8 0 0 1-.355-.67V30.39c0-.312.247-.566.551-.565" clip-rule="evenodd"/></svg>
